X: 17
T: Prelude in F Minor, Op. 28, No. 18
C: Frederic Chopin
%%abc-version 2.0
%%abcx-abcm2ps-target-version 5.9.1 (29 Sep 2008)
%%abc-creator hum2abc beta
%%abcx-conversion-date 2021/01/25 16:34:28
%%abc-copyright Copyright 2001 by Craig Stuart Sapp
%%abc-edited-by Craig Stuart Sapp
%%gracespace 0 6 6
%%humdrum-veritas 1360010569
%%humdrum-veritas-data 906313485
%%linebreak <none>
%%barnumbers 0
L: 1/16
M: 2/2
N: Derived from prelude28-18.krn
Q: "Allegro molto" 1/2=63
%%staves {1 2}
V: 1 clef=treble
V: 2 clef=bass
K: Ab
[V:1] C D =A, B, G, B, G F z2 [G,2B,2] [G,2B,2] z2 & x8F6=E2 [I:setbarnb 2]| 
[V:2] z8z2 [C,,2D,2] .[C,,2D,2] z2 | 
[V:1] C D =A, B, G, B, G F z2 [G,2B,2] [G,2B,2] z2 & x8F6=E2 | 
[V:2] z8z2 [C,,2D,2] .[C,,2D,2] z2 | 
[V:1] C D =A, B, G, B, G F ^D =E B A ^F G d c | 
[V:2] z8z2 B, A, ^F, G, D C | 
[V:1] =A B d' g c' b a g f =e g B (5:4:5=B c d G c | 
[V:2] =A, B, d G c B A G F =E G B, (5:4:5=B, C D G, C | 
[V:1] B =A F _G =D E c B z2 [C2E2] [C2E2] z2 & x8B6A2 | 
[V:2] B, =A, z2z4z2 [F,,2^F,2] .[F,,2F,2] z2 | 
[V:1] F _G =D E C E c B z2 [C2E2] [C2E2] z2 & x8B6=A2 | 
[V:2] z8z2 [F,,2_G,2] .[F,,2G,2] z2 | 
[V:1] F _G =D E C E c B ^G =A _g f =d e d' c' | 
[V:2] z4z2 C B, ^G, =A, _G F =D E d c | 
[V:1] (11:8:22b =a e' =e f _g c d f _e d c B =A c =E F _G C F _E D | 
[V:2] (11:8:22B =A e =E F _G C D F _E D C B, =A, C =E, F, _G, C, F, _E, D, | 
[V:1] C2 B,2 [F,2G,2B,2D2F2] z2 d G A =A c B _A G | 
[V:2] C,2 B,,2 [B,,,2B,,2] z2 D G, A, =A, C B, _A, G, | 
[V:1] F =E z2 [G,2B,2D2E2] z2 a B a g =e d B G | 
[V:2] F, =E, z2 [B,,,2B,,2] z2 A B, A G =E D B, G, | 
[V:1] =E F z2 [F,2C2F2] z2 c' f ^f g (5:4:5b a =f d c | 
[V:2] =E, F, z2 [A,,,2A,,2] z2 c F ^F G (5:4:5B A =F D C | 
[V:1] c =B z2 [A,2=B,2=D2A2] z2 (17:16:17a'/ =d'/ e'/ =e'/ g'/ f'/ d'/ =b/ g/ a/ f/ =d/ =B/ G/ A/ F/ =D/ | 
[V:2] C =B, z2 [F,,,2F,,2] z2 (17:16:17a/ =d/ e/ =e/ g/ f/ d/ =B/ G/ A/ F/ =D/ =B,/ G,/ A,/ F,/ =D,/ | 
[V:1] =B, C F E [C2E2A2c2] z2 (3[__e2__e'2] [d2d'2] [c'2c'2] (3[c2c'2] [c2c'2] [c2c'2] | 
[V:2] =B,, C, F, E, [E,,2A,,2E,2] z2 (3[__E,2__E2] [D,2D2] [C,2C2] (3[C,2C2] [C,2C2] [C,2C2] | 
[V:1] =B, C F =E [C2E2A2c2] z2 (3[__e2__e'2] [d2d'2] [c2c'2] [cc'] [cc'] [cc'] [cc'] | 
[V:2] =B,, C, F, =E, [=E,,2C,2E,2] z2 (3[__E,2__E2] [D,2D2] [C,2C2] [C,C] [C,C] [C,C] [C,C] | 
[V:1] =B, C G F .[C2F2A2c2] z2 B, C B A .[C2E2A2c2] z2 | 
[V:2] =B,, C, G, F, .[F,,2C,2A,2] z2 B,, C, B, A, .[_G,,2A,,2_G,2] z2 | 
[V:1] .[C2E2A2c2] !accent![c2c'2] .[=E2B2d2=e2] !accent![d2d'2] .[F2A2d2f2] !accent![a2a'2] .[G2d2f2g2] !accent![g2g'2] | 
[V:2] .[_G,,2A,,2_G,2] !accent![C,2C2] .[=G,,2=G,2] !accent![D,2D2] .[A,,2D,2A,2] !accent![A,2A2] .[B,,2D,2B,2] !accent![G,2G2] | 
[V:1] .[_C2_c2] z2 [f'2f''2-] f''/ e''/ d''/ a'/ f'/ e'/ d'/ a/ f/ e/ d/ A/ F/ E/ D/ A,/ F,/ E,/ D,/ A,,/ | 
[V:2] .[_C,,2_C,2] z2!accent!!arpeggio![_C4D4F4d4]z8 | 
[V:1] !trill!F,,8(3.=E,, .F,, .D, (3.C, .G,, ._C, (3._G,, .B,, .F,, (3.=A,, .F,, ._A,, | 
[V:2] !trill!F,,8(3.=E,,, .F,,, .D,, (3.C,, .G,,, ._C,, (3._G,,, .B,,, .F,,, (3.=A,,, .F,,, ._A,,, | 
[V:1] .C,,4z4z8 | 
[V:2] .C,,,4z4z8 | 
[V:1] z8[C,8G,8C8] | 
[V:2] z8[C,,8G,,8] | 
[V:1] !fermata![C,16F,16A,16C16] |]  
[V:2] !fermata![F,,,16F,,16] |]  


